themes/ColwichTheme/static/images/icons/coin.svg

<svg viewBox="0 0 512 512" xmlns="http://www.w3.org/2000/svg"><path d="m464 330.1c18.3-10.7 34.8-24.3 48-40v29c0 28.7-17.8 54.5-48 75.5zm-32 18.2v63.8c-27.1 13.7-59.8 23.6-96 29.5v-64.3c35.1-6 67.6-15.9 96-29zm-224 33.3c15.7 1.6 31.7 1.5 48 1.5s32.3.1 48-1.5v64.2c-15.5 1.4-31.6 1.3-48 1.3s-32.5.1-48-1.3zm-32-4.3v64.3c-36.2-5.9-68.9-15.8-96-29.5v-63.8c28.4 13.1 60.9 23 96 29zm-128 17.3c-30.21-21-48-46.8-48-75.5v-29c13.21 15.7 29.72 29.3 48 40zm38.59-242.8c12.01-11.3 27.71-20.1 43.51-26.8 34.5-13.4 78.7-21 125.9-21s91.4 7.6 125 21c16.7 6.7 32.4 15.5 44.4 26.8 12.1 11.5 22.6 27.7 22.6 48.2s-10.5 36.7-22.6 48.2c-12 11.3-27.7 20.1-44.4 25.9-33.6 14.3-77.8 21.9-125 21.9s-91.4-7.6-125.9-21.9c-15.8-5.8-31.5-14.6-43.51-25.9-12.09-11.5-22.59-27.7-22.59-48.2s10.5-36.7 22.59-48.2zm329.41 48.2c0-35.3-71.6-64-160-64s-160 28.7-160 64 71.6 64 160 64 160-28.7 160-64z"/><path d="m256 264c-88.4 0-160-28.7-160-64s71.6-64 160-64 160 28.7 160 64-71.6 64-160 64zm0-200c141.4 0 256 64.5 256 144s-114.6 144-256 144-256-64.5-256-144 114.6-144 256-144zm-192 136c0 20.5 10.5 36.7 22.59 48.2 12.01 11.3 27.71 20.1 43.51 25.9 34.5 14.3 78.7 21.9 125.9 21.9s91.4-7.6 125-21.9c16.7-5.8 32.4-14.6 44.4-25.9 12.1-11.5 22.6-27.7 22.6-48.2s-10.5-36.7-22.6-48.2c-12-11.3-27.7-20.1-44.4-26.8-33.6-13.4-77.8-21-125.9-21-46.3 0-90.5 7.6-125 21-15.8 6.7-31.5 15.5-43.51 26.8-12.09 11.5-23.49 27.7-23.49 48.2z" opacity=".4"/></svg>

<svg xmlns="http://www.w3.org/2000/svg" viewBox="0 0 512 512"><!--! Font Awesome Pro 6.1.1 by @fontawesome - https://fontawesome.com License - https://fontawesome.com/license (Commercial License) Copyright 2022 Fonticons, Inc. --><defs><style>.fa-secondary{opacity:.4}</style></defs><path class="fa-primary" d="M464 330.1C482.3 319.4 498.8 305.8 512 290.1V319.1C512 347.8 494.2 373.6 464 394.6V330.1zM432 348.3V412.1C404.9 425.8 372.2 435.7 336 441.6V377.3C371.1 371.3 403.6 361.4 432 348.3zM208 381.6C223.7 383.2 239.7 383.1 256 383.1C272.3 383.1 288.3 383.2 304 381.6V445.8C288.5 447.2 272.4 447.1 256 447.1C239.6 447.1 223.5 447.2 208 445.8V381.6zM176 377.3V441.6C139.8 435.7 107.1 425.8 80 412.1V348.3C108.4 361.4 140.9 371.3 176 377.3zM48 394.6C17.79 373.6 0 347.8 0 319.1V290.1C13.21 305.8 29.72 319.4 48 330.1V394.6zM86.59 151.8C98.6 140.5 114.3 131.7 130.1 125C164.6 111.6 208.8 104 256 104C303.2 104 347.4 111.6 381 125C397.7 131.7 413.4 140.5 425.4 151.8C437.5 163.3 448 179.5 448 200C448 220.5 437.5 236.7 425.4 248.2C413.4 259.5 397.7 268.3 381 274.1C347.4 288.4 303.2 296 256 296C208.8 296 164.6 288.4 130.1 274.1C114.3 268.3 98.6 259.5 86.59 248.2C74.5 236.7 64 220.5 64 200C64 179.5 74.5 163.3 86.59 151.8V151.8zM416 200C416 164.7 344.4 136 256 136C167.6 136 96 164.7 96 200C96 235.3 167.6 264 256 264C344.4 264 416 235.3 416 200z"/><path class="fa-secondary" d="M256 264C167.6 264 96 235.3 96 200C96 164.7 167.6 136 256 136C344.4 136 416 164.7 416 200C416 235.3 344.4 264 256 264zM256 64C397.4 64 512 128.5 512 208C512 287.5 397.4 352 256 352C114.6 352 0 287.5 0 208C0 128.5 114.6 64 256 64V64zM64 200C64 220.5 74.5 236.7 86.59 248.2C98.6 259.5 114.3 268.3 130.1 274.1C164.6 288.4 208.8 296 256 296C303.2 296 347.4 288.4 381 274.1C397.7 268.3 413.4 259.5 425.4 248.2C437.5 236.7 448 220.5 448 200C448 179.5 437.5 163.3 425.4 151.8C413.4 140.5 397.7 131.7 381 125C347.4 111.6 303.2 104 255.1 104C208.8 104 164.6 111.6 130.1 125C114.3 131.7 98.6 140.5 86.59 151.8C74.5 163.3 63.1 179.5 63.1 200H64z"/></svg>
